dist/img/home/icons/1/industry insights@4xу.svg

<svg xmlns="http://www.w3.org/2000/svg" viewBox="0 0 69.38 69.38"><defs><style>.cls-1{stroke-miterlimit:10;stroke-width:3px;fill:#333;stroke:#fff}</style></defs><g id="Слой_2" data-name="Слой 2"><g id="Слой_1-2" data-name="Слой 1"><g id="industry_insights" data-name="industry insights"><path class="cls-1" d="M63.14 36.39a2.08 2.08 0 01-2.08-2.07V13.67A2.08 2.08 0 0059 11.59h-5.7a2.08 2.08 0 110-4.16H59a6.25 6.25 0 016.24 6.24v20.65a2.08 2.08 0 01-2.1 2.07z"/><path d="M63.14 68.38a5.25 5.25 0 01-5.24-5.24V38.47a5.24 5.24 0 0110.48 0v24.67a5.25 5.25 0 01-5.24 5.24z" fill="#068887"/><path d="M63.14 34.24a4.24 4.24 0 014.24 4.23v24.67a4.24 4.24 0 11-8.48 0V38.47a4.25 4.25 0 014.24-4.23m0-2a6.24 6.24 0 00-6.24 6.23v24.67a6.24 6.24 0 1012.48 0V38.47a6.24 6.24 0 00-6.24-6.23z" fill="#fff"/><path d="M63.14 33.24a5.24 5.24 0 015.24 5.23v24.67a5.24 5.24 0 11-10.48 0V38.47a5.24 5.24 0 015.24-5.23m0-1a6.24 6.24 0 00-6.24 6.23v24.67a6.24 6.24 0 1012.48 0V38.47a6.24 6.24 0 00-6.24-6.23z" fill="#333"/><path class="cls-1" d="M18.46 13.35a2.16 2.16 0 01-.89-.19 2.09 2.09 0 01-1-2.77A10.95 10.95 0 0136.21 10a2.08 2.08 0 11-3.69 1.91 6.79 6.79 0 00-12.18.23 2.07 2.07 0 01-1.88 1.21z"/><path d="M9.51 18.52a9 9 0 10-9-9 9 9 0 009 9zm33.95 0a9 9 0 10-9-9 9 9 0 009 9z" fill="#fff" stroke="#333" stroke-miterlimit="10"/></g></g></g></svg>

<svg xmlns="http://www.w3.org/2000/svg" viewBox="0 0 69.38 69.38"><defs><style>.cls-1,.cls-4{fill:#333;}.cls-1{stroke:#fff;stroke-width:3px;}.cls-1,.cls-5{stroke-miterlimit:10;}.cls-2{fill:#068887;}.cls-3,.cls-5{fill:#fff;}.cls-5{stroke:#333;}</style></defs><title>industry insights@4xу</title><g id="Слой_2" data-name="Слой 2"><g id="Слой_1-2" data-name="Слой 1"><g id="industry_insights" data-name="industry insights"><path class="cls-1" d="M63.14,36.39a2.08,2.08,0,0,1-2.08-2.07V13.67A2.08,2.08,0,0,0,59,11.59H53.3a2.08,2.08,0,1,1,0-4.16H59a6.25,6.25,0,0,1,6.24,6.24V34.32A2.08,2.08,0,0,1,63.14,36.39Z"/><path class="cls-2" d="M63.14,68.38a5.25,5.25,0,0,1-5.24-5.24V38.47a5.24,5.24,0,0,1,10.48,0V63.14A5.25,5.25,0,0,1,63.14,68.38Z"/><path class="cls-3" d="M63.14,34.24a4.24,4.24,0,0,1,4.24,4.23V63.14a4.24,4.24,0,1,1-8.48,0V38.47a4.25,4.25,0,0,1,4.24-4.23m0-2a6.24,6.24,0,0,0-6.24,6.23V63.14a6.24,6.24,0,1,0,12.48,0V38.47a6.24,6.24,0,0,0-6.24-6.23Z"/><path class="cls-4" d="M63.14,33.24a5.24,5.24,0,0,1,5.24,5.23V63.14a5.24,5.24,0,1,1-10.48,0V38.47a5.24,5.24,0,0,1,5.24-5.23m0-1a6.24,6.24,0,0,0-6.24,6.23V63.14a6.24,6.24,0,1,0,12.48,0V38.47a6.24,6.24,0,0,0-6.24-6.23Z"/><path class="cls-1" d="M18.46,13.35a2.16,2.16,0,0,1-.89-.19,2.09,2.09,0,0,1-1-2.77A10.95,10.95,0,0,1,36.21,10a2.08,2.08,0,1,1-3.69,1.91,6.79,6.79,0,0,0-12.18.23A2.07,2.07,0,0,1,18.46,13.35Z"/><path class="cls-5" d="M9.51,18.52a9,9,0,1,0-9-9A9,9,0,0,0,9.51,18.52Z"/><path class="cls-5" d="M43.46,18.52a9,9,0,1,0-9-9A9,9,0,0,0,43.46,18.52Z"/></g></g></g></svg>
